communes/5604.svg

<?xml version="1.0" encoding="UTF-8"?>
<svg version="1.0" viewBox="0 0 603 763" xmlns="http://www.w3.org/2000/svg" xmlns:cc="http://creativecommons.org/ns#" xmlns:dc="http://purl.org/dc/elements/1.1/" xmlns:rdf="http://www.w3.org/1999/02/22-rdf-syntax-ns#" xmlns:xlink="http://www.w3.org/1999/xlink">
<metadata>
<rdf:RDF>
<cc:Work rdf:about="">
<dc:format>image/svg+xml</dc:format>
<dc:type rdf:resource="http://purl.org/dc/dcmitype/StillImage"/>
<dc:date>07-AUG-2006</dc:date>
<dc:creator>
<cc:Agent>
<dc:title>Jérôme BLUM (wagner51)</dc:title>
</cc:Agent>
</dc:creator>
<cc:license rdf:resource="http://creativecommons.org/licenses/GPL/2.0/"/>
<dc:coverage/>
<dc:description>Gabarit pour le Projet:Blasons de WIkipédia</dc:description>
<dc:subject>
<rdf:Bag>
<rdf:li>blason suisse modèle gabarit projet blasons</rdf:li>
</rdf:Bag>
</dc:subject>
<dc:language>fr</dc:language>
<dc:title>Gabrit d'un blason suisse</dc:title>
</cc:Work>
<cc:License rdf:about="http://creativecommons.org/licenses/GPL/2.0/">
<cc:permits rdf:resource="http://web.resource.org/cc/Reproduction"/>
<cc:permits rdf:resource="http://web.resource.org/cc/Distribution"/>
<cc:requires rdf:resource="http://web.resource.org/cc/Notice"/>
<cc:permits rdf:resource="http://web.resource.org/cc/DerivativeWorks"/>
<cc:requires rdf:resource="http://web.resource.org/cc/ShareAlike"/>
<cc:requires rdf:resource="http://web.resource.org/cc/SourceCode"/>
</cc:License>
</rdf:RDF>
</metadata>
<defs>
<radialGradient id="a" cx="858.04" cy="579.93" r="300" gradientTransform="matrix(1.215 1.5316e-24 1.4647e-23 1.2667 -839.19 -490.49)" gradientUnits="userSpaceOnUse">
<stop stop-color="#fff" stop-opacity=".31373" offset="0"/>
<stop stop-color="#fff" stop-opacity=".25098" offset=".19"/>
<stop stop-color="#6b6b6b" stop-opacity=".12549" offset=".6"/>
<stop stop-opacity=".12549" offset="1"/>
</radialGradient>
</defs>
<desc>Coat of Arms of Canton of Freiburg (Fribourg)</desc>
<g>
<path d="m1.5 1.5v458.87c0 166.31 134.31 301.13 300 301.13 165.69 0 300-134.82 300-301.13v-458.87h-600z" fill="#e20909"/>
<g stroke="#000" stroke-linecap="round" stroke-linejoin="round" stroke-width="3">
<path d="m295.84 440.78c19.928 0 19.012 10.566 33.76 10.566 16.609 0 12.08-10.189 28.312-10.189s57.586 22.645 57.586 97.764c0 65.682-15.476 95.125-56.242 123.81-33.277 23.42-35.859-6.039-57.752-6.039-21.895 0-24.477 29.459-57.754 6.039-40.768-28.688-56.245-58.131-56.245-123.81 0-75.117 27.178-97.764 43.41-97.764 16.231 0 11.702 10.189 28.311 10.189 16.606 0 15.096-10.566 36.614-10.566z" fill="#fff"/>
<path d="m151.31 120.88c5.304-5.212 11.047-10.266 17.139-15.265 31.79-26.084 44.686-41.226 54.54-40.991 0 0-3.34 17.818-18.932 36.75-15.59 18.932-87.976 89.09-87.976 182.64 0 86.738 49.788 175.39 110.3 203.81 0 0 3.199-16.215 23.578-16.215s40.756 34.234 43.201 41.57-6.521 4.891-6.521 15.486c0 10.598-8.965 48.094-30.158 48.094s-35.127-17.211-35.127-38.404c-10.5-6.701-23.398-15.563-36.854-26.504-5.146-4.184-8.293-5.133-17.216 3.404-7.933 7.588-19.313 31.037-19.313 47.246 0 26.555 21.381 45.869 21.381 63.111 0 18.969-10.689 32.418-20.002 32.418-3.104 0 3.793-15.518-13.795-37.244-17.589-21.729-39.485-70.77-21.037-114.5 9.311-22.072 29.368-32.391 22.271-41.543-1.154-1.488-2.187-3.08-3.432-4.502-4.197-4.789-11.414-3.893-25.641 7.869-13.434 11.109-43.659 14.727-58.643 3.875-14.984-10.85-15.243-21.957-13.434-22.732s17.567 12.141 35.651 3.357c28.5-13.842 38.539-27.67 32.574-43.932-0.773-2.107-1.552-4.219-2.26-6.359-5.393-16.322-9.967-33.32-13.729-50.635-0.864-3.977-2.515-6.098-15.011-11.756-12.495-5.658-39.137-16.977-39.137-57.764 0-23.342-2.358-43.146-4.716-47.625-2.357-4.479 15.325-5.658 23.813 17.683s1.824 36.46 19.569 49.982c4.951 3.773 8.937 2.588 8.594-5.426-0.962-22.5 0.631-45.25 6.31-67.602 1.543-6.078 3.896-10.783-9.212-20.194-13.106-9.41-46.412-37.583-43.355-74.277 0.336-4.033 11.326 13.463 27.56 25.543 14.452 10.755 38.991 28.055 45.208 17.052 2.433-4.307 4.895-8.686 7.799-12.859 2.449-3.521 4.803-10.243-4.271-18.309-9.077-8.065-67.739-57.26-58.819-84.023 1.344-4.033 5.713 11.428 34.955 27.224 29.24 15.796 42.348 25.88 48.062 29.577 5.713 3.696 10.656 7.304 16.083 1.971z" fill="#fff"/>
<path d="m480.61 142.97c-9.461-10.342-18.551-19.497-27.698-26.553-24.535-18.927-42.06-29.442-53.978-44.164s-16.826-19.628-18.227-17.525c-2.459 3.689-3.504 35.051 37.153 70.101 40.658 35.051 69.398 79.214 69.398 150.72 0 71.504-29.102 144.18-127.58 214.51 0 0-9.113-17.525-22.434-14.02-13.32 3.504-29.134 29.828-21.73 49.072 3.504 9.113 8.728 9.992 4.207 17.523-2.104 3.506-9.512 17.785 12.617 26.639 7.008 2.805 11.916 10.516 21.029 10.516 9.112 0 31.106-13.914 22.694-45.459 2.267-2.492 4.922-5.107 8.15-7.818 4.301-3.613 13.641-10.652 25.729-20.709 4.746-3.947 31.15-11.373 37.752 18.746 6.603 30.119-7.84 62.715-16.916 84.168-9.075 21.455-5.02 57.654 17.742 62.715 3.713 0.824-6.188-23.52 6.603-43.734 12.789-20.217 34.657-70.141 34.657-99.02 0-28.883-14.44-56.525-39.608-58.59-4.111-0.336 2.736-5.961 2.736-5.961 6.663-7.521 13.846-15.309 19.758-24.422 1.436-2.215 5.975-5.928 16.289 8.516 10.313 14.441 28.469 39.193 48.686 35.482 11.621-2.135 22.937-14.156 19.805-16.504-1.649-1.236-16.504-1.65-25.168-18.979-8.514-17.027-24.344-35.896-30.944-40.021-6.601-4.125-3.566-8.762-0.957-14.283 9.711-20.547 17.678-43.113 21.235-67.891 1.177-8.184 30.884-13.547 44.086-35.826 13.828-23.336 3.3-50.336 0.824-50.336-2.475 0-3.647 17.678-15.678 29.706-9.49 9.49-25.043 20.625-25.518 0.822-0.293-12.17-0.834-23.692-3.154-34.285-0.623-2.846 15.076-10.26 27.021-30.077 18.154-30.119 30.566-68.766 13.203-96.546-2.063-3.301-6.188-0.413-6.188 10.727 0 20.217-8.664 37.958-18.566 53.225-9.904 15.266-23.412 28.498-28.113 17.595-1.182-2.742 12.847-21.722 12.847-50.603 0-35.895-18.564-59.826-24.343-66.427-5.776-6.601-7.014-14.441-10.313-14.853s-2.625 21.22 6.602 49.511c6.186 18.978-3.072 45.944-13.708 34.318z" fill="#fff"/>
<path d="m335.14 546.13s5.605 15.42 18.226 11.215c10.295-3.43 12.655-11.994 22.694-23.025" fill="none"/>
<path d="m359.67 490.05c-4.908 3.506-3.506 12.619-3.506 12.619" fill="none"/>
<path d="m226.38 487.82c4.747 2.23 9.562 4.092 14.423 5.547" fill="none"/>
<path d="m246.7 553.12s-10.209-5.104-25.346-14.766" fill="none"/>
</g>
<g stroke="#000" stroke-linecap="round" stroke-linejoin="round" stroke-width="3">
<path d="m301.43 155.08c-23.258 0-51.432-3.178-56.908-8.653-1.873-1.873-4.46-3.031-7.317-3.031-5.715 0-10.348 4.633-10.348 10.348 0 4.996 3.541 9.164 8.249 10.134 16.629 4.007 19.862 39.966 19.862 77.701s1.639 76.177-13.633 79.663c-4.719 0.962-8.27 5.135-8.27 10.139 0 5.715 4.633 10.348 10.348 10.348 2.456 0 4.708-0.859 6.482-2.288l3e-3 3e-3c7.313-5.39 19.988-15.394 31.026-15.394 10.002 0 15.122 6.584 16.443 9.372l2e-3 -1e-3c1.424 3.07 4.525 5.203 8.132 5.203 4.953 0 8.968-4.015 8.968-8.968 0-3.197-1.678-5.997-4.196-7.584l4e-3 -7e-3c-14.945-8.695-19.737-28.065-19.737-41.259v-21.083c0-6.985 5.174-9.184 12.935-9.184 8.688 0 27.441 3.199 34.552 7.34-0.232-6.66-0.274-12.411-0.274-16.3 0-4.699 0.572-10.585 2.101-17.507l-0.721 0.485c-6.036 4.484-26.474 8.063-35.657 8.063-7.761 0-12.935-2.199-12.935-9.184 0-31.406-0.941-49.859 10.891-49.859 16.143 0 22.18 15.177 34.769 15.177 10.865 0 5.95-11.986 43.893-39.753-12.076 0-51.829 6.079-78.664 6.079z" fill="#fff"/>
<circle transform="translate(-.038 -.045)" cx="355.9" cy="312.8" r="7.502"/>
<path d="m338.03 257.88c0.734 20.993 3.363 51.016 12.528 60.181" fill="none"/>
<path d="m380.09 149c-25.185 30.523-36.144 56.517-40.239 75.071" fill="none"/>
</g>
</g>
<g>
<path d="m1.5 1.5v458.87c0 166.31 134.31 301.13 300 301.13 165.69 0 300-134.82 300-301.13v-458.87h-600z" fill="url(#a)"/>
<path d="m1.5 1.5v458.87c0 166.31 134.31 301.13 300 301.13 165.69 0 300-134.82 300-301.13v-458.87h-600z" fill="none" stroke="#000" stroke-width="3"/>
</g>
</svg>

<?xml version="1.0" encoding="UTF-8" standalone="no"?>
<svg
   xmlns:dc="http://purl.org/dc/elements/1.1/"
   xmlns:cc="http://creativecommons.org/ns#"
   xmlns:rdf="http://www.w3.org/1999/02/22-rdf-syntax-ns#"
   xmlns:svg="http://www.w3.org/2000/svg"
   xmlns="http://www.w3.org/2000/svg"
   xmlns:xlink="http://www.w3.org/1999/xlink"
   xmlns:sodipodi="http://sodipodi.sourceforge.net/DTD/sodipodi-0.dtd"
   xmlns:inkscape="http://www.inkscape.org/namespaces/inkscape"
   height="763"
   width="603"
   version="1.0"
   id="svg20"
   sodipodi:version="0.32"
   inkscape:version="0.46"
   sodipodi:docname="Forel-coat_of_arms.svg"
   sodipodi:docbase="C:\Documents and Settings\Steve\Bureau\Blason Villages Suisse pour Wikipédia (par Delta-9)"
   inkscape:output_extension="org.inkscape.output.svg.inkscape">
  <metadata
     id="metadata31">
    <rdf:RDF>
      <cc:Work
         rdf:about="">
        <dc:format>image/svg+xml</dc:format>
        <dc:type
           rdf:resource="http://purl.org/dc/dcmitype/StillImage" />
        <dc:date>07-AUG-2006</dc:date>
        <dc:creator>
          <cc:Agent>
            <dc:title>Jérôme BLUM (wagner51)</dc:title>
          </cc:Agent>
        </dc:creator>
        <cc:license
           rdf:resource="http://creativecommons.org/licenses/GPL/2.0/" />
        <dc:coverage />
        <dc:description>Gabarit pour le Projet:Blasons de WIkipédia</dc:description>
        <dc:subject>
          <rdf:Bag>
            <rdf:li>blason suisse modèle gabarit projet blasons</rdf:li>
          </rdf:Bag>
        </dc:subject>
        <dc:language>fr</dc:language>
        <dc:title>Gabrit d'un blason suisse</dc:title>
      </cc:Work>
      <cc:License
         rdf:about="http://creativecommons.org/licenses/GPL/2.0/">
        <cc:permits
           rdf:resource="http://web.resource.org/cc/Reproduction" />
        <cc:permits
           rdf:resource="http://web.resource.org/cc/Distribution" />
        <cc:requires
           rdf:resource="http://web.resource.org/cc/Notice" />
        <cc:permits
           rdf:resource="http://web.resource.org/cc/DerivativeWorks" />
        <cc:requires
           rdf:resource="http://web.resource.org/cc/ShareAlike" />
        <cc:requires
           rdf:resource="http://web.resource.org/cc/SourceCode" />
      </cc:License>
    </rdf:RDF>
  </metadata>
  <defs
     id="defs29"><inkscape:perspective
   sodipodi:type="inkscape:persp3d"
   inkscape:vp_x="0 : 381.5 : 1"
   inkscape:vp_y="0 : 1000 : 0"
   inkscape:vp_z="603 : 381.5 : 1"
   inkscape:persp3d-origin="301.5 : 254.33333 : 1"
   id="perspective28" />
<linearGradient
   id="linearGradient2893">
  <stop
     style="stop-color:#ffffff;stop-opacity:0.3137255;"
     offset="0"
     id="stop2895" />
  <stop
     id="stop2897"
     offset="0.19"
     style="stop-color:#ffffff;stop-opacity:0.25098041;" />
  <stop
     style="stop-color:#6b6b6b;stop-opacity:0.1254902;"
     offset="0.60000002"
     id="stop2901" />
  <stop
     style="stop-color:#000000;stop-opacity:0.1254902;"
     offset="1"
     id="stop2899" />
</linearGradient>
<linearGradient
   id="linearGradient2955">
  <stop
     style="stop-color:white;stop-opacity:0;"
     offset="0"
     id="stop2965" />
  <stop
     style="stop-color:black;stop-opacity:0.64583331;"
     offset="1"
     id="stop2959" />
</linearGradient>
<radialGradient
   inkscape:collect="always"
   xlink:href="#linearGradient2893"
   id="radialGradient3236"
   gradientUnits="userSpaceOnUse"
   gradientTransform="matrix(1.215027,1.531577e-24,1.464684e-23,1.266667,-839.1924,-490.4894)"
   cx="858.04236"
   cy="579.93323"
   fx="858.04236"
   fy="579.93323"
   r="300" />
<inkscape:perspective
   id="perspective2502"
   inkscape:persp3d-origin="297.63751 : 280.63 : 1"
   inkscape:vp_z="595.27502 : 420.94501 : 1"
   inkscape:vp_y="0 : 1000 : 0"
   inkscape:vp_x="0 : 420.94501 : 1"
   sodipodi:type="inkscape:persp3d" />

	
	

	

		
		
	
		
		
		
		
		
		
		
	
			
				
			
			
		</defs>
  <sodipodi:namedview
     inkscape:window-height="968"
     inkscape:window-width="1280"
     inkscape:pageshadow="2"
     inkscape:pageopacity="0.0"
     guidetolerance="10.0"
     gridtolerance="10.0"
     objecttolerance="10.0"
     borderopacity="1.0"
     bordercolor="#666666"
     pagecolor="#ffffff"
     id="base"
     inkscape:zoom="0.92652193"
     inkscape:cx="420.25504"
     inkscape:cy="399.00713"
     inkscape:window-x="1280"
     inkscape:window-y="22"
     inkscape:current-layer="layer2"
     showgrid="false"
     showguides="true"
     inkscape:guide-bbox="true">
    <sodipodi:guide
       orientation="horizontal"
       position="761.5"
       id="guide1885" />
    <sodipodi:guide
       orientation="vertical"
       position="1.5"
       id="guide1887" />
    <sodipodi:guide
       orientation="horizontal"
       position="1.5"
       id="guide1889" />
    <sodipodi:guide
       orientation="vertical"
       position="601.5"
       id="guide1891" />
    <sodipodi:guide
       orientation="vertical"
       position="301.50081"
       id="guide1893" />
  </sodipodi:namedview>
  <desc
     id="desc22">Coat of Arms of Canton of Freiburg (Fribourg)</desc>
  <g
     inkscape:groupmode="layer"
     id="layer1"
     inkscape:label="Fond écu"
     style="opacity:1;display:inline"
     sodipodi:insensitive="true">
    <path
       id="path1899"
       d="M 1.5,1.49998 L 1.5,460.3679 C 1.5,626.6785 135.81456,761.5 301.49999,761.5 C 467.18543,761.5 601.5,626.6785 601.5,460.3679 L 601.5,1.49998 L 1.5,1.49998 z"
       style="fill:#e20909;fill-opacity:1" />
  </g>
  <g
     inkscape:groupmode="layer"
     id="layer2"
     inkscape:label="Meubles"
     style="opacity:1;display:inline"
     sodipodi:insensitive="true">
    <g
       id="g2594">
      <path
         d="M 295.84,440.785 C 315.768,440.785 314.852,451.351 329.6,451.351 C 346.209,451.351 341.68,441.162 357.912,441.162 C 374.144,441.162 415.498,463.807 415.498,538.926 C 415.498,604.608 400.022,634.051 359.256,662.739 C 325.979,686.159 323.397,656.7 301.504,656.7 C 279.609,656.7 277.027,686.159 243.75,662.739 C 202.982,634.051 187.505,604.608 187.505,538.926 C 187.505,463.809 214.683,441.162 230.915,441.162 C 247.146,441.162 242.617,451.351 259.226,451.351 C 275.832,451.351 274.322,440.785 295.84,440.785 z"
         id="path1969"
         style="fill:#ffffff;stroke:#000000;stroke-width:3;stroke-linecap:round;stroke-linejoin:round" />
      <path
         d="M 151.311,120.877 C 156.615,115.665 162.358,110.611 168.45,105.612 C 200.24,79.528 213.136,64.386 222.99,64.621 C 222.99,64.621 219.65,82.439 204.058,101.371 C 188.468,120.303 116.082,190.461 116.082,284.006 C 116.082,370.744 165.87,459.398 226.385,487.818 C 226.385,487.818 229.584,471.603 249.963,471.603 C 270.342,471.603 290.719,505.837 293.164,513.173 C 295.609,520.509 286.643,518.064 286.643,528.659 C 286.643,539.257 277.678,576.753 256.485,576.753 C 235.292,576.753 221.358,559.542 221.358,538.349 C 210.858,531.648 197.96,522.786 184.504,511.845 C 179.358,507.661 176.211,506.712 167.288,515.249 C 159.355,522.837 147.975,546.286 147.975,562.495 C 147.975,589.05 169.356,608.364 169.356,625.606 C 169.356,644.575 158.667,658.024 149.354,658.024 C 146.25,658.024 153.147,642.506 135.559,620.78 C 117.97,599.051 96.074,550.01 114.522,506.282 C 123.833,484.21 143.89,473.891 136.793,464.739 C 135.639,463.251 134.606,461.659 133.361,460.237 C 129.164,455.448 121.947,456.344 107.72,468.106 C 94.286,479.215 64.061,482.833 49.077,471.981 C 34.093,461.131 33.834,450.024 35.643,449.249 C 37.452,448.474 53.21,461.39 71.294,452.606 C 99.794,438.764 109.833,424.936 103.868,408.674 C 103.095,406.567 102.316,404.455 101.608,402.315 C 96.215,385.993 91.641,368.995 87.879,351.68 C 87.015,347.703 85.364,345.582 72.868,339.924 C 60.373,334.266 33.731,322.947 33.731,282.16 C 33.731,258.818 31.373,239.014 29.015,234.535 C 26.658,230.056 44.34,228.877 52.828,252.218 C 61.316,275.559 54.652,288.678 72.397,302.2 C 77.348,305.973 81.334,304.788 80.991,296.774 C 80.029,274.274 81.622,251.524 87.301,229.172 C 88.844,223.094 91.197,218.389 78.089,208.978 C 64.983,199.568 31.677,171.395 34.734,134.701 C 35.07,130.668 46.06,148.164 62.294,160.244 C 76.746,170.999 101.285,188.299 107.502,177.296 C 109.935,172.989 112.397,168.61 115.301,164.437 C 117.75,160.916 120.104,154.194 111.03,146.128 C 101.953,138.063 43.291,88.868 52.211,62.105 C 53.555,58.072 57.924,73.533 87.166,89.329 C 116.406,105.125 129.514,115.209 135.228,118.906 C 140.941,122.602 145.884,126.21 151.311,120.877 z"
         id="path1971"
         style="fill:#ffffff;stroke:#000000;stroke-width:3;stroke-linecap:round;stroke-linejoin:round" />
      <path
         d="M 480.606,142.967 C 471.145,132.625 462.055,123.47 452.908,116.414 C 428.373,97.487 410.848,86.972 398.93,72.25 C 387.012,57.528 382.104,52.622 380.703,54.725 C 378.244,58.414 377.199,89.776 417.856,124.826 C 458.514,159.877 487.254,204.04 487.254,275.543 C 487.254,347.047 458.152,419.721 359.672,490.05 C 359.672,490.05 350.559,472.525 337.238,476.03 C 323.918,479.534 308.104,505.858 315.508,525.102 C 319.012,534.215 324.236,535.094 319.715,542.625 C 317.611,546.131 310.203,560.41 332.332,569.264 C 339.34,572.069 344.248,579.78 353.361,579.78 C 362.473,579.78 384.467,565.866 376.055,534.321 C 378.322,531.829 380.977,529.214 384.205,526.503 C 388.506,522.89 397.846,515.851 409.934,505.794 C 414.68,501.847 441.084,494.421 447.686,524.54 C 454.289,554.659 439.846,587.255 430.77,608.708 C 421.695,630.163 425.75,666.362 448.512,671.423 C 452.225,672.247 442.324,647.903 455.115,627.689 C 467.904,607.472 489.772,557.548 489.772,528.669 C 489.772,499.786 475.332,472.144 450.164,470.079 C 446.053,469.743 452.9,464.118 452.9,464.118 C 459.563,456.597 466.746,448.809 472.658,439.696 C 474.094,437.481 478.633,433.768 488.947,448.212 C 499.26,462.653 517.416,487.405 537.633,483.694 C 549.254,481.559 560.57,469.538 557.438,467.19 C 555.789,465.954 540.934,465.54 532.27,448.211 C 523.756,431.184 507.926,412.315 501.326,408.19 C 494.725,404.065 497.76,399.428 500.369,393.907 C 510.08,373.36 518.047,350.794 521.604,326.016 C 522.781,317.832 552.488,312.469 565.69,290.19 C 579.518,266.854 568.99,239.854 566.514,239.854 C 564.039,239.854 562.867,257.532 550.836,269.56 C 541.346,279.05 525.793,290.185 525.318,270.382 C 525.025,258.212 524.484,246.69 522.164,236.097 C 521.541,233.251 537.24,225.837 549.185,206.02 C 567.339,175.901 579.751,137.254 562.388,109.474 C 560.325,106.173 556.2,109.061 556.2,120.201 C 556.2,140.418 547.536,158.159 537.634,173.426 C 527.73,188.692 514.222,201.924 509.521,191.021 C 508.339,188.279 522.368,169.299 522.368,140.418 C 522.368,104.523 503.804,80.592 498.025,73.991 C 492.249,67.39 491.011,59.55 487.712,59.138 C 484.413,58.726 485.087,80.358 494.314,108.649 C 500.5,127.627 491.242,154.593 480.606,142.967 z"
         id="path1973"
         style="fill:#ffffff;stroke:#000000;stroke-width:3;stroke-linecap:round;stroke-linejoin:round" />
      <path
         d="M 335.139,546.132 C 335.139,546.132 340.744,561.552 353.365,557.347 C 363.66,553.917 366.02,545.353 376.059,534.322"
         id="path1975"
         style="fill:none;stroke:#000000;stroke-width:3;stroke-linecap:round;stroke-linejoin:round" />
      <path
         d="M 359.674,490.05 C 354.766,493.556 356.168,502.669 356.168,502.669"
         id="path1977"
         style="fill:none;stroke:#000000;stroke-width:3;stroke-linecap:round;stroke-linejoin:round" />
      <path
         d="M 226.385,487.818 C 231.132,490.048 235.947,491.91 240.808,493.365"
         id="path1979"
         style="fill:none;stroke:#000000;stroke-width:3;stroke-linecap:round;stroke-linejoin:round" />
      <path
         d="M 246.703,553.115 C 246.703,553.115 236.494,548.011 221.357,538.349"
         id="path1981"
         style="fill:none;stroke:#000000;stroke-width:3;stroke-linecap:round;stroke-linejoin:round" />
    </g>
    <g
       id="g2574">
      <path
         id="path2487"
         d="M 301.431,155.084 C 278.173,155.084 249.999,151.906 244.523,146.431 L 244.523,146.431 C 242.65,144.558 240.063,143.4 237.206,143.4 C 231.491,143.4 226.858,148.033 226.858,153.748 C 226.858,158.744 230.399,162.912 235.107,163.882 L 235.107,163.882 C 251.736,167.889 254.969,203.848 254.969,241.583 C 254.969,279.318 256.608,317.76 241.336,321.246 L 241.336,321.246 C 236.617,322.208 233.066,326.381 233.066,331.385 C 233.066,337.1 237.699,341.733 243.414,341.733 C 245.87,341.733 248.122,340.874 249.896,339.445 L 249.899,339.448 C 257.212,334.058 269.887,324.054 280.925,324.054 C 290.927,324.054 296.047,330.638 297.368,333.426 L 297.37,333.425 C 298.794,336.495 301.895,338.628 305.502,338.628 C 310.455,338.628 314.47,334.613 314.47,329.66 C 314.47,326.463 312.792,323.663 310.274,322.076 L 310.278,322.069 C 295.333,313.374 290.541,294.004 290.541,280.81 L 290.541,259.727 C 290.541,252.742 295.715,250.543 303.476,250.543 C 312.164,250.543 330.917,253.742 338.028,257.883 C 337.796,251.223 337.754,245.472 337.754,241.583 C 337.754,236.884 338.326,230.998 339.855,224.076 L 339.134,224.561 C 333.098,229.045 312.66,232.624 303.477,232.624 C 295.716,232.624 290.542,230.425 290.542,223.44 C 290.542,192.034 289.601,173.581 301.433,173.581 C 317.576,173.581 323.613,188.758 336.202,188.758 C 347.067,188.758 342.152,176.772 380.095,149.005 C 368.019,149.005 328.266,155.084 301.431,155.084 z"
         style="fill:#ffffff;stroke:#000000;stroke-width:3;stroke-linecap:round;stroke-linejoin:round" />
      <circle
         transform="translate(-3.8e-2,-4.5e-2)"
         style="stroke:#000000;stroke-width:3;stroke-linecap:round;stroke-linejoin:round"
         sodipodi:ry="7.5019999"
         sodipodi:rx="7.5019999"
         sodipodi:cy="312.80399"
         sodipodi:cx="355.89801"
         cx="355.89801"
         cy="312.80399"
         r="7.5019999"
         id="circle2491" />
      <path
         style="fill:none;stroke:#000000;stroke-width:3;stroke-linecap:round;stroke-linejoin:round"
         d="M 338.026,257.883 C 338.76,278.876 341.389,308.899 350.554,318.064"
         id="path2493" />
      <path
         style="fill:none;stroke:#000000;stroke-width:3;stroke-linecap:round;stroke-linejoin:round"
         d="M 380.092,149.005 C 354.907,179.528 343.948,205.522 339.853,224.076"
         id="path2495" />
    </g>
  </g>
  <g
     inkscape:groupmode="layer"
     id="layer3"
     inkscape:label="Reflet final"
     style="display:inline"
     sodipodi:insensitive="true">
    <path
       style="fill:url(#radialGradient3236);fill-opacity:1"
       d="M 1.5,1.5 L 1.5,460.3679 C 1.5,626.67854 135.81454,761.5 301.49993,761.5 C 467.1854,761.5 601.5,626.67854 601.5,460.3679 L 601.5,1.5 L 1.5,1.5 z"
       id="path2346" />
  </g>
  <g
     inkscape:groupmode="layer"
     id="layer4"
     inkscape:label="Contour final"
     style="display:inline"
     sodipodi:insensitive="true">
    <path
       style="fill:none;fill-opacity:1;stroke:#000000;stroke-width:3;stroke-miterlimit:4;stroke-dasharray:none;stroke-opacity:1"
       d="M 1.5,1.5 L 1.5,460.36794 C 1.5,626.67854 135.81454,761.5 301.49993,761.5 C 467.1854,761.5 601.5,626.67854 601.5,460.36794 L 601.5,1.5 L 1.5,1.5 z "
       id="path3239" />
  </g>
</svg>
